!!!COM: Beethoven, Ludwig van
!!!CDT: 1770///-1827///
!!!OTL: Piano Sonata no. 9 in E major
!!!OPS: 14
!!!ONM: 1
!!!OMV: 3
!!!OMD: Rondo: Allegro commodo
**kern	**kern	**dynam
*staff2	*staff1	*staff1
*clefF4	*clefG2	*clefG2
*k[f#c#g#d#]	*k[f#c#g#d#]	*k[f#c#g#d#]
*E:	*E:	*E:
*M2/2	*M2/2	*M2/2
*MM132	*MM132	*MM132
12G#\L	(4b\	p
12B\	.	.
12e\J	.	.
12F#\L	4d#\ 4dd#\	.
12A\	.	.
12B\J	.	.
=1	=1	=1
12E\L	2e\ 2ee\)	.
12G#\	.	.
12B\J	.	.
12D#\L	.	.
12F#\	.	.
12B\J	.	.
12C#\L	4e'\ (4ee'\	.
12E\	.	.
12A\J	.	.
12BB\L	4e'\ 4ee'\)	.
12D#\	.	.
12G#\J	.	.
=2	=2	=2
12AA/L	4.f#\ (4.ff#\	.
12C#/	.	.
12F#/J	.	.
12GG#/L	.	.
12BB/	.	.
.	8g#\ 8gg#\)	.
12E/J	.	.
12FF#/L	4a'\ 4aa'\	.
12AA/	.	.
12D#/J	.	.
12EE/L	4a'\ 4aa'\	.
12GG#/	.	.
12C#/J	.	.
=3	=3	=3
12DD#/L	4a'\ 4aa'\	<
12FF#/	.	.
12BB/J	.	.
12EE/L	4a'\ 4aa'\	.
12GG#/	.	.
12BB/J	.	.
12DD#/L	4a'\ 4aa'\	.
12FF#/	.	.
12BB/J	.	.
12CC#/L	4a'\ 4aa'\	.
12EE/	.	.
12BB/J	.	.
=4	=4	=4
*^	*	*
(4DD#/	2BBB\	2a\ 2aa\	f
4BB/)	.	.	.
2r	2r	(16aa\LL	p
.	.	16gg#\	.
.	.	16ff#\	.
.	.	16ee\JJ	.
.	.	16dd#\LL	.
.	.	16cc#\	.
.	.	16b\	.
.	.	16a\JJ)	.
=5	=5	=5	=5
*	*	*^	*
4r	2E\	(4g#/	2g#\	.
2B/	.	2b/	.	.
.	2BB\	.	2d#\	.
4A/	.	8.f#/L	.	.
.	.	16g#/Jk	.	.
=6	=6	=6	=6	=6
(4G#/	2E\	4e/	4e\)	.
4B/)	.	4r	2.r	.
2r	2r	(16a/LL	.	p
.	.	16g#/	.	.
.	.	16f#/	.	.
.	.	16e/JJ	.	.
.	.	16d#/LL	.	.
.	.	16c#/	.	.
.	.	16B/	.	.
.	.	16A/JJ)	.	.
*	*	*v	*v	*
*	*	*clefF4	*clefF4
=7	=7	=7	=7
*	*	*^	*
4r	2EE\	(4G#/	2G#\	.
2BB/	.	2B/	.	.
.	2BBB\	.	2D#\	.
4AA/	.	8.F#/L	.	.
.	.	16G#/Jk	.	.
*v	*v	*	*	*
*	*v	*v	*
=8	=8	=8
4EE/ 4GG#/	4E/)	.
4E'\	4r	.
*	*clefG2	*clefG2
12G#\L	(4b\	p
12B\	.	.
12e\J	.	.
12F#\L	4d#\ 4dd#\	.
12A\	.	.
12B\J	.	.
=9	=9	=9
12E\L	2e\ 2ee\)	.
12G#\	.	.
12B\J	.	.
12D#\L	.	.
12F#\	.	.
12B\J	.	.
12C#\L	4e'\ 4ee'\	.
12E\	.	.
12A\J	.	.
12BB\L	4e'\ 4ee'\	.
12D#\	.	.
12G#\J	.	.
=10	=10	=10
12AA/L	4.f#\ (4.ff#\	.
12C#/	.	.
12F#/J	.	.
12GG#/L	.	.
12BB/	.	.
.	8g#\ 8gg#\)	.
12E/J	.	.
12FF#/L	4a'\ 4aa'\	.
12AA/	.	.
12D#/J	.	.
12EE/L	4a'\ 4aa'\	.
12GG#/	.	.
12C#/J	.	.
=11	=11	=11
12DD#/L	4a'\ 4aa'\	<
12FF#/	.	.
12BB/J	.	.
12EE/L	4a'\ 4aa'\	.
12GG#/	.	.
12BB/J	.	.
12DD#/L	4a'\ 4aa'\	.
12FF#/	.	.
12BB/J	.	.
12CC#/L	4a'\ 4aa'\	.
12EE/	.	.
12BB/J	.	.
=12	=12	=12
*^	*	*
(4DD#/	2BBB\	2a\ 2aa\	f
4BB/)	.	.	.
2r	2r	(16aa\LL	p
.	.	16gg#\	.
.	.	16ff#\	.
.	.	16ee\JJ	.
.	.	16dd#\LL	.
.	.	16cc#\	.
.	.	16b\	.
.	.	16a\JJ)	.
=13	=13	=13	=13
*	*	*^	*
4r	2E\	(4g#/	2g#\	.
2B/	.	2b/	.	.
.	2BB\	.	2d#\	.
4A/	.	8.f#/L	.	.
.	.	16g#/Jk	.	.
=14	=14	=14	=14	=14
4G#/	4E\	4e/)	4e\	.
2.r	4r	4r	2.r	.
.	(16e\LL	2r	.	.
.	16d#\	.	.	.
.	16c#\	.	.	.
.	16B\JJ	.	.	.
.	16A#\LL	.	.	.
.	16G#\	.	.	.
.	16F#\	.	.	.
.	16E\JJ)	.	.	.
*v	*v	*	*	*
*	*v	*v	*
=15	=15	=15
(4D#\	2r	.
4F#\	.	.
4AA#/	(16ee\LL	.
.	16dd#\	.
.	16cc#\	.
.	16b\JJ	.
4F#\)	16a#/LL	.
.	16g#/	.
.	16f#/	.
.	16e/JJ)	.
=16	=16	=16
2BB/	(4d#/	.
.	4f#/	.
(16E/LL	4A#/	.
16D#/	.	.
16C#/	.	.
16BB/JJ	.	.
16AA#/LL	4f#/)	.
16GG#/	.	.
16FF#/	.	.
16EE/JJ)	.	.
=17	=17	=17
*^	*	*
2.r	(4DD#/	2B/	.
.	4FF#/	.	.
.	4AAA#/	16e/LL	.
.	.	16d#/	.
.	.	16c#/	.
.	.	16B/JJ	.
16A#/LL	4FF#/)	4r	.
16G#/	.	.	.
16F#/	.	.	.
16E/JJ	.	.	.
=18	=18	=18	=18
4BBB/	2BBB\	16D#/LL	.
.	.	16E/	<
.	.	16F#/	.
.	.	16G#/JJ	.
4BB/	.	16A#/LL	.
.	.	16B/	.
.	.	16c#/	.
.	.	16d#/JJ	.
(4C#/	2CC#\ 2C#\	2e/	.
4BB/)	.	.	.
=19	=19	=19	=19
(4D#/	2DD#\ 2D#\	(16f#/LL	.
.	.	16g#/	.
.	.	16a#/	.
.	.	16b/JJ	.
4BB/)	.	16cc#\LL	.
.	.	16dd#\	.
.	.	16ee\	.
.	.	16ff#\JJ)	.
(4E/	2EE\ 2E\	2gg#\	.
4BB/)	.	.	.
*v	*v	*	*
=20	=20	=20
4FF#/ 4F#/	(8aa#\L	f
.	16gg#\L	.
.	16aa#\JJ)	.
4GG#'/ 4G#'/	4bb'\	.
4EE'/ 4E'/	(8cc#\L	.
.	16b#\L	.
.	16cc#\JJ)	.
4FF#'/ 4F#'/	4ff#'\	.
=21	=21	=21
4BBB'/ 4BB'/	4bn'\	.
4r	4r	.
2r	(2bb\	p
=22	=22	=22
1r	2b\	.
.	2f##/)	.
=23	=23	=23
*	*^	*
2r	[2g#/	2r	.
4r	(2cc#/	2e\ 2g#\]	.
4E'\	.	.	.
=24	=24	=24	=24
4r	2b/)	2d#\ 2f#\	.
4F#\	.	.	.
4r	(8b/L	2c#\ 2e\	.
.	8a#/	.	.
4FF#'/	8g#/	.	.
.	8a#/J)	.	.
=25	=25	=25	=25
4r	2B\ 2d#\	2b/	.
4BBB'/ 4BB'/	.	.	.
2r	4bb'\	2r	pp
.	(4bb\	.	.
*	*v	*v	*
=26	=26	=26
1r	4b'\)	.
.	(4b\	.
.	4f##'/)	.
.	(4f##/	.
=27	=27	=27
*	*^	*
2r	(2g#/)	2r	.
4r	(2cc#/)	2e\ 2g#\	.
4E'\	.	.	.
=28	=28	=28	=28
4r	2b/)	2d#\ 2f#\	.
4F#'\	.	.	.
4r	(8b/L	2c#\ 2e\	.
.	8a#/	.	.
4FF#'/	8g#/	.	.
.	8a#/J)	.	.
*	*v	*v	*
=29	=29	=29
4r	2B/ 2d#/ 2b/	>
4BB'/	.	.
4r	2B/ 2c#/ 2e/ 2b/	.
4AA#'\ 4A#'\	.	.
=30	=30	=30
4r	2B;/ 2d#;/ 2f#;/ 2b;/	pp
4AAn;\ 4An;\	.	.
12G#\L	(4b\	p
12B\	.	.
12e\J	.	.
12F#\L	4d#\ 4dd#\	.
12A\	.	.
12B\J	.	.
=31	=31	=31
12E\L	2e\ 2ee\)	.
12G#\	.	.
12B\J	.	.
12D#\L	.	.
12F#\	.	.
12B\J	.	.
12C#\L	4e'\ 4ee'\	.
12E\	.	.
12A\J	.	.
12BB\L	4e'\ 4ee'\	.
12D#\	.	.
12G#\J	.	.
=32	=32	=32
12AA/L	4.f#\ (4.ff#\	.
12C#/	.	.
12F#/J	.	.
12GG#/L	.	.
12BB/	.	.
.	8g#\ 8gg#\)	.
12E/J	.	.
12FF#/L	4a'\ 4aa'\	.
12AA/	.	.
12D#/J	.	.
12EE/L	4a'\ 4aa'\	.
12GG#/	.	.
12C#/J	.	.
=33	=33	=33
12DD#/L	4a'\ 4aa'\	<
12FF#/	.	.
12BB/J	.	.
12EE/L	4a'\ 4aa'\	.
12GG#/	.	.
12BB/J	.	.
12DD#/L	4a'\ 4aa'\	.
12FF#/	.	.
12BB/J	.	.
12CC#/L	4a'\ 4aa'\	.
12EE/	.	.
12BB/J	.	.
=34	=34	=34
*^	*	*
(4DD#/	2BBB\	2a\ 2aa\	f
4BB/)	.	.	.
2r	2r	(16aa\LL	p
.	.	16gg#\	.
.	.	16ff#\	.
.	.	16ee\JJ	.
.	.	16dd#\LL	.
.	.	16cc#\	.
.	.	16b\	.
.	.	16a\JJ)	.
=35	=35	=35	=35
*	*	*^	*
4r	2E\	(4g#/	2g#\	.
2B/	.	2b/	.	.
.	2BB\	.	2d#\	.
4A/	.	8.f#/L	.	.
.	.	16g#/Jk)	.	.
=36	=36	=36	=36	=36
(4G#/	2E\	4e/	4e\	.
4B/)	.	4r	2.r	.
2r	2r	(16a/LL	.	.
.	.	16g#/	.	.
.	.	16f#/	.	.
.	.	16e/JJ	.	.
.	.	16d#/LL	.	.
.	.	16c#/	.	.
.	.	16B/	.	.
.	.	16A/JJ)	.	.
*	*	*v	*v	*
*	*	*clefF4	*clefF4
=37	=37	=37	=37
*	*	*^	*
4r	2EE\	(4G#/	2G#\	.
2BB/	.	2B/	.	.
.	2BBB\	.	2D#\	.
4AA/	.	8.F#/L	.	.
.	.	16G#/Jk)	.	.
*v	*v	*	*	*
=38	=38	=38	=38
4EE/ 4GG#/	4E/	4E\	.
4E'\	2.r	4r	.
*	*clefG2	*clefG2	*clefG2
12Gn\L	.	(4b\	p
12B\	.	.	.
12e\J	.	.	.
12F#\L	.	4d#\ 4dd#\	.
12A\	.	.	.
12B\J	.	.	.
*	*v	*v	*
=39	=39	=39
12E\L	2e\ 2ee\)	.
12Gn\	.	.
12B\J	.	.
12Dn\L	.	.
12F#\	.	.
12B\J	.	.
12Cn\L	4e'\ 4ee'\	.
12E\	.	.
12A\J	.	.
12BB\L	4e'\ 4ee'\	.
12D\	.	.
12G\J	.	.
=40	=40	=40
12AA/L	4.f#\ (4.ff#\	.
12Cn/	.	.
12F#/J	.	.
12GGn/L	.	.
12BB/	.	.
.	8gn\ 8ggn\)	.
12E/J	.	.
12FF#/L	4a'\ 4aa'\	.
12AA/	.	.
12Dn/J	.	.
12EE/L	4b'\ 4bb'\	.
12GG/	.	.
12D/J	.	.
=41	=41	=41
12DDn/L	4ccn'\ 4cccn'\	<
12FF#/	.	.
12Dn/J	.	.
12GGn/L	4cc'\ 4ccc'\	.
12BB/	.	.
12D/J	.	.
12FF#/L	4cc'\ 4ccc'\	.
12AA/	.	.
12D/J	.	.
12EE/L	4cc'\ 4ccc'\	.
12GG/	.	.
12D/J	.	.
=42	=42	=42
*^	*	*
(4FF#/	1DDn	2ccn\ 2cccn\	f
2.Dn/)	.	.	.
.	.	(16ccc\LL	.
.	.	16bb\	.
.	.	16aa\	.
.	.	16ggn\JJ	.
.	.	16ff#\LL	.
.	.	16ee\	.
.	.	16ddn\	.
.	.	16ccn\JJ)	.
=43	=43	=43	=43
*	*	*^	*
(4DDn/	1DD	[2ggn/	(2b\	.
2.Dn/)	.	.	.	.
.	.	16gg/LL]	4cc#\)	.
.	.	16ff#/	.	.
.	.	16ee/	.	.
.	.	16ddn/JJ	.	.
.	.	16cc#/LL	4r	.
.	.	16b/	.	.
.	.	16a/	.	.
.	.	16gn/JJ	.	.
*	*	*v	*v	*
=44	=44	=44	=44
(4DDn/	1DD	2f#/ 2ddn/	.
2.Dn/)	.	.	.
.	.	(16ccn/LL	.
.	.	16b/	.
.	.	16a/	.
.	.	16gn/JJ	.
.	.	16f#/LL	.
.	.	16e/	.
.	.	16dn/	.
.	.	16cn/JJ)	.
=45	=45	=45	=45
*	*	*^	*
(4DDn/	1DD	[2gn/	(2B\	.
2.Dn/)	.	.	.	.
.	.	(16g/LL]	4c#\)	.
.	.	16f#/	.	.
.	.	16e/	.	.
.	.	16dn/JJ	.	.
.	.	16c#/LL	4r	.
.	.	16B/	.	.
.	.	16A/	.	.
.	.	16Gn/JJ)	.	.
*v	*v	*	*	*
*	*v	*v	*
*	*clefF4	*clefF4
=46	=46	=46
4DDn/	(16F#\LL	.
.	16Gn\	.
.	16A\	.
.	16B\JJ	.
4r	16cn\LL	.
.	16B\	.
.	16A\	.
.	16G\JJ	.
2r	16F#\LL	.
.	16G\	.
.	16F#\	.
.	16E\JJ	.
.	16Dn\LL	.
.	16Cn\	.
.	16BB\	.
.	16AA\JJ)	.
=47	=47	=47
*k[f#]	*k[f#]	*k[f#]
4GGG'/ 4GG'/	12r	.
.	12BB\L	f
.	12D\J	.
4r	12G\L	.
.	12D\	.
.	12BB\J	.
2r	12B'\L	.
.	12D\	.
.	12G\J	.
.	12B\L	.
.	12G\	.
.	12D\J	.
=48	=48	=48
2r	12d'\L	.
.	12G\	.
.	12B\J	.
.	12d\L	.
.	12B\	.
.	12G\J	.
*	*clefG2	*clefG2
4r	12g'/L	.
.	12d/	.
.	12B/J	.
4DD'/ 4D'/	12f#'/L	f
.	12c/	.
.	12A/J	.
=49	=49	=49
4GG'/ 4G'/	12g'/L	.
.	12B/	.
.	12d/J	.
4r	12g/L	.
.	12d/	.
.	12B/J	.
2r	12b'/L	.
.	12d/	.
.	12g/J	.
.	12b/L	.
.	12g/	.
.	12d/J	.
=50	=50	=50
2r	12dd'\L	.
.	12g\	.
.	12b\J	.
.	12dd\L	.
.	12b\	.
.	12g\J	.
4r	12dd'\L	.
.	12b\	.
.	12g#\J	.
4EE'/ 4E'/	12b'/L	f
.	12g#/	.
.	12d/J	.
=51	=51	=51
4AA'/ 4A'/	12a'/L	.
.	12c/	.
.	12e/J	.
4r	12a/L	.
.	12e/	.
.	12c/J	.
2r	12cc'/L	.
.	12e/	.
.	12a/J	.
.	12cc/L	.
.	12a/	.
.	12e/J	.
=52	=52	=52
2r	12ee'\L	.
.	12a\	.
.	12cc\J	.
.	12ee\L	.
.	12cc\	.
.	12a\J	.
4r	12aa'\L	.
.	12ee\	.
.	12cc\J	.
4EE'/ 4E'/	12gg#'\L	.
.	12dd\	.
.	12b\J	.
=53	=53	=53
4AA'/ 4A'/	12aa'\L	.
.	12cc\	.
.	12ee\J	.
4r	12aa\L	.
.	12ee\	.
.	12cc\J	.
2r	12ccc'\L	.
.	12ee\	.
.	12aa\J	.
.	12ccc\L	.
.	12aa\	.
.	12ee\J	.
=54	=54	=54
2r	12eee'\L	.
.	12aa\	.
.	12ccc\J	.
.	12eee\L	.
.	12ccc\	.
.	12aa\J	.
4r	12eee'\L	.
.	12ccc#\	.
.	12aa#\J	p
4F#'\ 4f#'\	12ccc#\L	.
.	12aa#\	.
.	12ee\J	.
*clefG2	*	*
=55	=55	=55
4B'/ 4b'/	12bb'\L	.
.	12ff#\	.
.	12dd\J	.
4Gn'/ 4gn'/	12bb\L	.
.	12ggn\	.
.	12dd\J	.
*clefF4	*	*
4E'\ 4e'\	12bb\L	.
.	12gg\	.
.	12cc#\J	.
4F#'\ 4f#'\	12aa#\L	.
.	12ff#\	.
.	12cc#\J	.
=56	=56	=56
4BB'\ 4B'\	12bb\L	.
.	12ff#\	.
.	12dd\J	.
4r	12ff#\L	.
.	12dd\	.
.	12b\J	.
4r	12ff#\L	.
.	12dd\	.
.	12b\J	.
4FF#'/ 4F#'/	12ff#\L	.
.	12cc#\	.
.	12a#\J	.
=57	=57	=57
4BB'\ 4B'\	12ff#\L	.
.	12dd\	.
.	12b\J	.
4GG'/ 4G'/	12gg\L	.
.	12dd\	.
.	12b\J	.
4EE'/ 4E'/	12gg\L	.
.	12cc#\	.
.	12b\J	.
4FF#'/ 4F#'/	12ff#\L	.
.	12cc#\	.
.	12a#\J	f
=58	=58	=58
[1BBB [1BB	4r	.
.	12ff#\L	.
.	12dd\	.
.	12b\J	.
.	12bb'\L	.
.	12ff#\	.
.	12dd\J	.
.	12b/L	.
.	12f#/	.
.	12d/J	.
=59	=59	=59
1BBB] 1BB]	12b'/L	.
.	12f#/	.
.	12d/J	.
*	*clefF4	*clefF4
.	12B\L	.
.	12F#\	.
.	12D\J	.
.	12B'\L	.
.	12F#\	.
.	12D\J	.
.	12BB\L	.
.	12D\	.
.	12F#\J	.
=60	=60	=60
[1AAA [1AA	4r	.
*	*clefG2	*clefG2
.	12ff#\L	.
.	12dd\	.
.	12ccn\J	.
.	12ccc'\L	.
.	12ff#\	.
.	12dd\J	.
.	12cc/L	.
.	12f#/	.
.	12d/J	.
=61	=61	=61
1AAA] 1AA]	12cc'/L	.
.	12f#/	.
.	12d/J	.
*	*clefF4	*clefF4
.	12c\L	.
.	12F#\	.
.	12D\J	.
.	12c'\L	.
.	12F#\	.
.	12D\J	.
.	12C\L	.
.	12D\	.
.	12F#\J	.
*	*clefG2	*clefG2
=62	=62	=62
[1GGG [1GG	4r	.
.	12gg\L	.
.	12dd\	.
.	12b\J	.
.	12bb'\L	.
.	12gg\	.
.	12dd\J	.
.	12b/L	.
.	12g/	.
.	12d/J	.
=63	=63	=63
1GGG] 1GG]	12b'/L	.
.	12g/	.
.	12d/J	.
*	*clefF4	*clefF4
.	12B\L	.
.	12G\	.
.	12D\J	.
.	12B'\L	.
.	12G\	.
.	12D\J	.
.	12BB\L	.
.	12D\	.
.	12G\J	.
=64	=64	=64
[1FFF# [1FF#	4r	.
*	*clefG2	*clefG2
.	12dd#\L	.
.	12b\	.
.	12a\J	.
.	12aa'\L	.
.	12dd#\	.
.	12b\J	.
.	12a/L	.
.	12d#/	.
.	12B/J	.
=65	=65	=65
1FFF#] 1FF#]	12a'/L	.
.	12d#/	.
.	12B/J	.
*	*clefF4	*clefF4
.	12A\L	.
.	12D#\	.
.	12BB\J	.
.	12A'\L	.
.	12D#\	.
.	12BB\J	.
.	12AA/L	.
.	12BB/	.
.	12D#/J	.
=66	=66	=66
4EEE/ 4EE/	12r	.
.	12GG/L	p
.	12BB/J	.
4r	12E/L	.
.	12BB/	.
.	12GG/J	.
2r	12G'\L	.
.	12BB\	.
.	12E\J	.
.	12G\L	.
.	12E\	.
.	12BB\J	.
=67	=67	=67
2r	12B'\L	.
.	12E\	.
.	12G\J	.
.	12B\L	.
.	12G\	.
.	12E\J	.
4r	12e\L	.
.	12B\	.
.	12G\J	.
4BBB'/ 4BB'/	12d#'\L	.
.	12A\	.
.	12F#\J	.
=68	=68	=68
4EE'/ 4E'/	12e'\L	.
.	12G\	.
.	12B\J	.
4r	12e\L	.
.	12B\	.
.	12G\J	.
*	*clefG2	*clefG2
2r	12g'/L	.
.	12B/	.
.	12e/J	.
.	12g/L	.
.	12e/	.
.	12B/J	.
=69	=69	=69
2r	12b'/L	.
.	12e/	.
.	12g/J	.
.	12b/L	.
.	12g/	.
.	12e/J	.
4r	12ee'/L	.
.	12b/	.
.	12g/J	.
4BB'\ 4B'\	12dd#'/L	.
.	12a/	.
.	12f#/J	.
=70	=70	=70
4C'\ 4c'\	12ee'/L	.
.	12g/	.
.	12e/J	.
4r	12cc/L	.
.	12g/	.
.	12e/J	.
4r	12cc/L	.
.	12fn/	.
.	12d/J	.
4GG#'\ 4G#'\	12b'/L	.
.	12f/	.
.	12d/J	.
=71	=71	=71
4AA'/ 4A'/	12cc'/L	.
.	12e/	.
.	12c/J	.
4r	12a/L	.
.	12e/	.
.	12c/J	.
4r	12a/L	.
.	12e/	.
.	12c/J	.
4AAA'/ 4AA'/	12f#/L	.
.	12e/	.
.	12c/J	.
=72	=72	=72
4BBB'/ 4BB'/	12r	.
.	12B/L	.
.	12e/J	.
4r	12g/L	.
.	12e/	.
.	12B/J	.
4BBB'/ 4BB'/	12r	.
.	12A/L	.
.	12d#/J	.
4r	12f#/L	.
.	12d#/	.
.	12A/J	.
=73	=73	=73
4CC'/ 4C'/	12r	.
.	12e/L	.
.	12g/J	.
4r	12ee/L	>
.	12g/	.
.	12e/J	.
4r	12cc/L	.
.	12fn/	.
.	12dn/J	.
4GGG#'/ 4GG#'/	12b/L	.
.	12f/	.
.	12d/J	.
=74	=74	=74
4AAA'/ 4AA'/	12r	.
.	12c/L	.
.	12e/J	.
4r	12cc/L	.
.	12e/	.
.	12c/J	.
4r	12a/L	.
.	12e/	.
.	12c/J	.
4AAA'/ 4AA'/	12f#/L	.
.	12e/	.
.	12c/J	.
=75	=75	=75
4AAA#'/ 4AA#'/	12r	.
.	12c#/L	.
.	12e/J	.
4r	12g/L	.
.	12e/	.
.	12c#/J	.
4AAA#'/ 4AA#'/	12r	.
.	12G/L	.
.	12c#/J	.
4r	12e/L	.
.	12c#/	.
.	12G/J	.
=76	=76	=76
1BBB 1BB	4r	.
.	12d#/L	.
.	12B/	.
.	12F#/J	.
.	12f#/L	.
.	12d#/	.
.	12B/J	.
.	12b/L	.
.	12f#/	.
.	12d#/J	.
=77	=77	=77
*^	*	*
2.r	1BBB 1BB	4r	.
.	.	12g/L	.
.	.	12e/	.
.	.	12B/J	.
.	.	12e/L	.
.	.	12B/	.
.	.	12G/J	.
12B/L	.	4r	.
12G/	.	.	.
12E/J	.	.	.
*v	*v	*	*
=78	=78	=78
1BBB 1BB	4r	.
.	12d#/L	.
.	12B/	.
.	12F#/J	.
.	12f#/L	.
.	12d#/	.
.	12B/J	.
.	12b/L	.
.	12f#/	.
.	12d#/J	.
=79	=79	=79
1BBB 1BB	4r	.
.	12g/L	.
.	12e/	.
.	12B/J	.
.	12e/L	.
.	12B/	.
.	12G/J	.
*	*clefF4	*clefF4
.	12B\L	.
.	12G\	.
.	12E\J	.
=80	=80	=80
[1BBB	12BB/L	<
.	12Cn/	.
.	12C#/J	.
.	12Dn\L	.
.	12D#\	.
.	12E\J	.
.	12E#\L	.
.	12F#\	.
.	12G\J	.
.	12G#\L	.
.	12A\	.
.	12A#\J	.
*	*clefG2	*clefG2
=81	=81	=81
1BBB_ [1BB	12B/L	.
.	12cn/	.
.	12c#/J	.
.	12dn/L	.
.	12d#/	.
.	12e/J	.
.	12e#/L	.
.	12f#/	.
.	12gn/J	.
.	12g#/L	.
.	12an/	.
.	12a#/J	.
=82	=82	=82
1BBB_ 1BB_	12b\L	>
.	12ccn\	.
.	12cc#\J	.
.	12ddn\L	.
.	12dd#\	.
.	12een\J	.
.	12ee#\L	.
.	12ff#\	.
.	12ggn\J	.
.	12gg#\L	.
.	12aan\	.
.	12aa#\J	.
=83	=83	=83
2BBB;/] 2BB;/]	2bb;\	p
=	=	=
*k[f#c#g#d#]	*k[f#c#g#d#]	*k[f#c#g#d#]
12G#\L	(4b\	p
12B\	.	.
12e\J	.	.
12F#\L	4d#\ 4dd#\	.
12A\	.	.
12B\J	.	.
=84	=84	=84
12E\L	2e\ 2ee\)	.
12G#\	.	.
12B\J	.	.
12D#\L	.	.
12F#\	.	.
12B\J	.	.
12C#\L	4e'\ 4ee'\	.
12E\	.	.
12A\J	.	.
12BB\L	4e'\ 4ee'\	.
12D#\	.	.
12G#\J	.	.
=85	=85	=85
12AA/L	4.f#\ (4.ff#\	.
12C#/	.	.
12F#/J	.	.
12GG#/L	.	.
12BB/	.	.
.	8g#\ 8gg#\)	.
12E/J	.	.
12FF#/L	4a'\ 4aa'\	.
12AA/	.	.
12D#/J	.	.
12EE/L	4a'\ 4aa'\	.
12GG#/	.	.
12C#/J	.	.
=86	=86	=86
12DD#/L	4a'\ 4aa'\	<
12FF#/	.	.
12BB/J	.	.
12EE/L	4a'\ 4aa'\	.
12GG#/	.	.
12BB/J	.	.
12DD#/L	4a'\ 4aa'\	.
12FF#/	.	.
12BB/J	.	.
12CC#/L	4a'\ 4aa'\	.
12EE/	.	.
12BB/J	.	.
=87	=87	=87
*^	*	*
(4DD#/	2BBB\	2a\ 2aa\	f
4BB/)	.	.	.
2r	2r	(16aa\LL	p
.	.	16gg#\	.
.	.	16ff#\	.
.	.	16ee\JJ	.
.	.	16dd#\LL	.
.	.	16cc#\	.
.	.	16b\	.
.	.	16a\JJ)	.
=88	=88	=88	=88
*	*	*^	*
4r	2E\	(4g#/	2g#\	.
2B/	.	2b/	.	.
.	2BB\	.	2d#\	.
4A/	.	8.f#/L	.	.
.	.	16g#/Jk	.	.
=89	=89	=89	=89	=89
(4G#/	4E\	4e/	4e\)	.
4B/)	4r	4r	2.r	.
2r	2r	(16a/LL	.	.
.	.	16g#/	.	.
.	.	16f#/	.	.
.	.	16e/JJ	.	.
.	.	16d#/LL	.	.
.	.	16c#/	.	.
.	.	16B/	.	.
.	.	16A/JJ)	.	.
*	*	*v	*v	*
*	*	*clefF4	*clefF4
=90	=90	=90	=90
*	*	*^	*
4r	2EE\	(4G#/	2G#\	.
2BB/	.	2B/	.	.
.	2BBB\	.	2D#\	.
4AA/	.	8.F#/L	.	.
.	.	16G#/Jk)	.	.
*v	*v	*	*	*
*	*v	*v	*
=91	=91	=91
4EE/ (4GG#/	4E\	.
4E'\)	4r	.
(16dn\LL	2r	p
16c#\	.	.
16B\	.	.
16A\JJ	.	.
16G#\LL	.	.
16F#\	.	.
16E\	.	.
16Dn\JJ)	.	.
*	*clefG2	*clefG2
=92	=92	=92
(4C#\	2r	.
4E\	.	.
4GG#/	(16dddn\LL	.
.	16ccc#\	.
.	16bb\	.
.	16aa\JJ	.
4E\)	16gg#\LL	.
.	16ff#\	.
.	16ee\	.
.	16ddn\JJ)	.
=93	=93	=93
2AA/	(4cc#\	.
.	4ee\	.
(16Dn/LL	4g#/	.
16C#/	.	.
16BB/	.	.
16AA/JJ	.	.
16GG#/LL	4ee\)	.
16FF#/	.	.
16EE/	.	.
16DDn/JJ)	.	.
=94	=94	=94
*^	*	*
(4CC#/	2r	2a\	.
4EE/	.	.	.
*	*	*clefF4	*clefF4
4GGG#/	2GGG#\	(16dn\LL	.
.	.	16c#\	.
.	.	16B\	.
.	.	16A\JJ	.
4EE/)	.	16G#\LL	.
.	.	16F#\	.
.	.	16E\	.
.	.	16Dn\JJ)	.
=95	=95	=95	=95
4AAA/	2AAA\	(16C#\LL	<
.	.	16Dn\	.
.	.	16E\	.
.	.	16F#\JJ	.
4AA/	.	16G#\LL	.
.	.	16A\	.
.	.	16B\	.
.	.	16c#\JJ)	.
(4BB/	2BBB\ 2BB\	2dn\	.
4AA/)	.	.	.
*	*	*clefG2	*clefG2
=96	=96	=96	=96
4C#/	2CC#\ (2C#\	(16e/LL	.
.	.	16f#/	.
.	.	16g#/	.
.	.	16a/JJ	.
4AA/)	.	16b\LL	.
.	.	16cc#\	.
.	.	16ddn\	.
.	.	16ee\JJ)	.
(4Dn/	2DDn\ 2Dn\	2ff#\	.
4AA/)	.	.	.
*v	*v	*	*
=97	=97	=97
4EE'/ 4E'/	(8gg#\L	f
.	16ff#\L	.
.	16gg#\JJ)	.
4FF#'/ 4F#'/	4aa'\	.
4DDn'/ 4Dn'/	(8b\L	.
.	16a#\L	.
.	16b\JJ)	.
4EE'/ 4E'/	4ee'\	.
=98	=98	=98
4AAA/ 4AA/	4an/	.
4r	4r	.
2r	(2aa\	p
=99	=99	=99
1r	2a/	.
.	2e#/)	.
=100	=100	=100
*	*^	*
2r	([2f#/	2r	.
4r	2b/	2dn\ 2f#\]	.
4Dn'\	.	.	.
*	*v	*v	*
=101	=101	=101
*	*^	*
4r	2a/)	2c#\ 2e\	.
4E'\	.	.	.
4r	(8a/L	2B\ 2dn\	.
.	8g#/	.	.
4EE'/	8f#/	.	.
.	8g#/J)	.	.
*	*v	*v	*
=102	=102	=102
4AA'/	4c#/ 4e/ 4a/	.
4A'\	4r	.
2r	4aa'\	pp
.	(4aa\	.
=103	=103	=103
1r	4a'/)	.
.	(4a/	.
.	4e'/)	.
.	4e/	.
=104	=104	=104
*	*^	*
2r	([2fn/	2r	.
4r	2b-/	2dn\ 2f\_	.
4FFn'/ 4Fn'/	.	.	.
=105	=105	=105	=105
4r	2a/	2cn\ 2f\]	.
4FFn'/ 4Fn'/	.	.	.
4r	8a/L	2B-\ 2e\	.
.	8gn/	.	.
4FF'/ 4F'/	8fn/	.	.
.	8g/J	.	.
*	*v	*v	*
=106	=106	=106
4r	2An/ 2cn/ 2fn/	.
4FFn'/ 4Fn'/	.	.
4r	2A/ 2e/	.
4FF'/ 4F'/	.	.
=107	=107	=107
4r	2A/ 2cn/ 2d#/)	pp
4FF#'/ 4F#'/	.	.
4r	[2A/ [2B/ [2d#/	.
4FF#'/ 4F#'/	.	.
=108	=108	=108
2r	2A/] 2B/] 2d#/]	.
(12G#\L	8r	.
12B\	.	.
.	4b\	p
12e\J)	.	.
12F#\L	.	.
12A\	.	.
.	[8d#\ [8dd#\	.
12B\J	.	.
=109	=109	=109
12E\L	8d#\] 8dd#\]	<
12G#\	.	.
.	4e\ 4ee\	.
12B\J	.	.
12D#\L	.	.
12F#\	.	.
.	4e\ 4ee\	.
12B\J	.	.
12C#\L	.	.
12E\	.	.
.	4e\ 4ee\	.
12A\J	.	.
12BB\L	.	.
12D#\	.	.
.	[8e\ [8ee\	.
12G#\J	.	.
=110	=110	=110
12AA/L	8e\] 8ee\]	.
12C#/	.	.
.	4f#\ 4ff#\	.
12F#/J	.	.
12GG#/L	.	.
12BB/	.	.
.	4g#\ 4gg#\	.
12E/J	.	.
12FF#/L	.	.
12AA/	.	.
.	4a\ 4aa\	.
12D#/J	.	.
12EE/L	.	.
12GG#/	.	.
.	[8a\ [8aa\	.
12C#/J	.	.
=111	=111	=111
12DD#/L	8a\] 8aa\]	<
12FF#/	.	.
.	4a\ 4aa\	.
12BB/J	.	.
12EE/L	.	.
12GG#/	.	.
.	4a\ 4aa\	.
12BB/J	.	.
12DD#/L	.	.
12FF#/	.	.
.	4a\ 4aa\	.
12BB/J	.	.
12CC#/L	.	.
12EE/	.	.
.	8a\ 8aa\	.
12BB/J	.	.
=112	=112	=112
*^	*	*
(4DD#/	2BBB\	2a\ 2aa\	.
4BB/)	.	.	.
8r	2r	4a'\ 4aa'\	ff
4BBB/ 4BB/	.	.	.
.	.	4a'\ 4aa'\	.
([8DD#/ [8D#/	.	.	.
*v	*v	*	*
=113	=113	=113
8DD#/] 8D#/]	4g#'\ 4gg#'\	.
4EE/ 4E/	.	.
.	4f#'\ 4ff#'\	.
4EE/ 4E/	.	.
.	4e'\ 4ee'\	.
4EE/ 4E/	.	.
.	4d#'\ 4dd#'\	.
[8EE/ [8E/	.	.
=114	=114	=114
8EE/]) 8E/]	4c#'/ 4cc#'/	.
4EE/ 4E/	.	.
.	4B'/ 4b'/	.
4EE/ 4E/	.	.
.	4c#'/ 4cc#'/	.
4EE/ 4E/	.	.
.	4Bn'/ 4bn'/	.
[8EE#/ [8E#/	.	.
=115	=115	=115
8EE#/] 8E#/]	4A'/ 4a'/	.
4FF#/ 4F#/	.	.
.	4G#'/ 4g#'/	.
4GG#/ 4G#/	.	.
.	4f#'/	.
4AA/ 4A/	.	.
.	4e'/	.
[8AA/ [8A/	.	.
=116	=116	=116
8AA/] 8A/]	4d#'/	.
4AA/ 4A/	.	.
.	4f#'/	.
4AA/ 4A/	.	.
.	4a'/	.
4AA/ 4A/	.	.
.	4ccn'/	.
8AA/ 8A/	.	.
=117	=117	=117
2AA/ 2A/	16d#/LL	.
.	16f#/	.
.	16ccn/	.
.	16dd#/JJ	.
.	16d#/LL	.
.	16f#/	.
.	16cc/	.
.	16dd#/JJ	.
4CCn'/ 4Cn'/	16d#/LL	.
.	16f#/	.
.	16a/	.
.	16dd#/JJ	.
4CC'/ 4C'/	16d#/LL	.
.	16f#/	.
.	16a/	.
.	16dd#/JJ	.
=118	=118	=118
2CCn/ 2Cn/	16d#/LL	.
.	16f#/	.
.	16a/	.
.	16dd#/JJ	.
.	16d#/LL	.
.	16f#/	.
.	16a/	.
.	16dd#/JJ	.
4DD#'/ 4D#'/	16cn/LL	.
.	16f#/	.
.	16a/	.
.	16ccn/JJ	.
4DD#'/ 4D#'/	16c/LL	.
.	16f#/	.
.	16a/	.
.	16cc/JJ	.
=119	=119	=119
2DD#/ 2D#/	16cn/LL	.
.	16f#/	.
.	16a/	.
.	16ccn/JJ	.
.	16c/LL	.
.	16f#/	.
.	16a/	.
.	16cc/JJ	.
4FF#'/ 4F#'/	16B/LL	.
.	16d#/	.
.	16a/	.
.	16b/JJ	.
4FF#'/ 4F#'/	16B/LL	.
.	16d#/	.
.	16a/	.
.	16b/JJ	.
=120	=120	=120
4FF#'/ 4F#'/	16B/LL	>
.	16d#/	.
.	16a/	.
.	16b/JJ	.
4FF#'/ 4F#'/	16B/LL	.
.	16d#/	.
.	16a/	.
.	16b/JJ	.
4FF#'/ 4F#'/	16B/LL	.
.	16d#/	.
.	16a/	.
.	16b/JJ	.
4FF#'/ 4F#'/	16B/LL	.
.	16d#/	.
.	16a/	.
.	16b/JJ	.
=121	=121	=121
2FF#;/ 2F#;/	2B/ 2d#/ 2a/ 2b/	p
12G#\L	(8b\L	pp
12B\	.	.
.	8cc#\	.
12e\J	.	.
12F#\L	8ddn\	.
12A\	.	.
.	8dd#\J	.
12B\J	.	.
=122	=122	=122
12E\L	4ee'\)	.
12G#\	.	.
12B\J	.	.
12D#\L	4r	.
12F#\	.	.
12B\J	.	.
12C#\L	(8e/L	.
12E\	.	.
.	8f#/	.
12A\J	.	.
12BB\L	8gn/	.
12D#\	.	.
.	8g#/J	.
12G#\J	.	.
=123	=123	=123
12AA/L	4a'/)	.
12C#/	.	.
12F#/J	.	.
12GG#/L	4r	.
12BB/	.	.
12E/J	.	.
12FF#/L	(8ee\L	<
12AA/	.	.
.	8ff#\	.
12D#/J	.	.
12EE/L	8ggn\	.
12GG#/	.	.
.	8gg#\J	.
12C#/J	.	.
=124	=124	=124
12DD#/L	4aa'\)	.
12FF#/	.	.
12BB/J	.	.
12EE/L	4r	.
12GG#/	.	.
12BB/J	.	.
12DD#/L	(8aa\L	.
12FF#/	.	.
.	8gg#\	.
12BB/J	.	.
12CC#/L	8aa\	.
12EE/	.	.
.	8gg#\J	.
12BB/J	.	.
=125	=125	=125
(4BBB/ 4DD#/	4aa'\)	.
4BB/)	4r	.
2r	(16aa\LL	p
.	16gg#\	.
.	16ff#\	.
.	16ee\JJ	.
.	16dd#\LL	.
.	16cc#\	.
.	16b\	.
.	16a\JJ)	.
=126	=126	=126
2r	(4g#/	.
.	4b/	.
(16A\LL	4d#/	p
16G#\	.	.
16F#\	.	.
16E\JJ	.	.
16D#\LL	4b/)	.
16C#\	.	.
16BB\	.	.
16AA\JJ)	.	.
=127	=127	=127
(4GG#/	2e/	.
4BB/	.	.
4DD#/	(16a/LL	.
.	16g#/	.
.	16f#/	.
.	16e/JJ	.
4BB/)	16d#/LL	.
.	16c#/	.
.	16B/	.
.	16A/JJ)	.
=128	=128	=128
*^	*	*
4EE/	2EE\	(16G#/LL	.
.	.	16A/	.
.	.	16B/	.
.	.	16c#/JJ	.
4E/	.	16d#/LL	<
.	.	16e/	.
.	.	16f#/	.
.	.	16g#/JJ)	.
4F#/	2FF#\ (2F#\	2a/	.
4E/)	.	.	.
=129	=129	=129	=129
(4G#/	2GG#\ 2G#\	(16b\LL	.
.	.	16cc#\	.
.	.	16dd#\	.
.	.	16ee\JJ	.
4E/)	.	16ff#\LL	.
.	.	16gg#\	.
.	.	16aa\)	.
.	.	16bb\JJ	.
(4A/	2AA\ 2A\	2ccc#\	.
4E/)	.	.	.
=130	=130	=130	=130
(4c#/	2C#\ 2c#\	(4.aa#\	f
4E/)	.	.	.
.	.	16gg##\LL	.
.	.	16aa#\JJ)	.
2r	4BB'\ 4B'\	4bb'\	.
.	4BB'\ 4B'\	4b'\ 4bb'\	.
*v	*v	*	*
=131	=131	=131
4EE/ 4E/	4e'\ 4ee'\	.
4r	4r	.
2r	2r	.
==	==	==
*-	*-	*-
!!!ENC: Craig Stuart Sapp
!!!END: 2006/08/01/
